X: 39106
T: Sweeper's Tune, The
R: waltz
M: 3/4
K: Bminor
d- de|:f>d e/f/B df|a2 fd fd|e>c d/e/d cB|AF Ac de|
fe dB df|a2 fd fd|e>c d/e/d cB|1 B4 fg:|2 B4 de||
|:fd AA df|ed cc dc|Bc dc de|de ff ed|
f>d e/f/A df|ed cc dc|B>c d/e/f ed|1 B4 de:|2 B2- B2- B2||

